X: 13844
T: Four Up
R: hornpipe
M: 4/4
K: Eminor
|:^D2|E^DE>F G>FG>A|B2 G>B- B>A G2|A2 F>A- A>G F2|E2 (3^DEF G2 (3FGF|
E2 E>F G2- G>A|B>AG>B- B>AG>d|A>FA>B- B>A (3AGF|(3EFE [^D2B2] E2:|
|:(3Gc^d|e2 c>c- c>c c2|B>AG>B- B>A G2|A>FA>B- B>AG>F|G>EG>A B>^c^d>e|
c2 c>c- c>e (3gfe|B2 G>B- B>A G2|A>DF>B- B>AG>F|E2 ^D2 E2:|

